X:1
T:Title
%%score { ( 1 3 ) | ( 2 4 ) }
L:1/8
M:4/4
K:Ab
V:1 treble nm="Grand Piano"
V:3 treble 
V:2 bass 
V:4 bass 
V:1
 z4 z2[Q:1/4=92] [A,C][B,D] | [CE][CF][CG][CA] [DB][CA][Fd][Ec] | cB=AB F2 F[F_A] | GGGF EGB[Fd] | %4
 c-[Ac-][Gc-][Fc-] [Ec]2 C[B,D] | [CE][CF][CG][CA] [DB][CA][Fd][Ec] | cB=AB F2 F[F_A] | %7
 [EG][FA][GB][GB] cc =d>d |[M:3/4] [Ge]6 |[M:1/4] e>e |[M:4/4] z2 E>E E2 e>e | A6 z2 | %12
 [A,DF][A,DF][FA][FA] .[Fd]2 .[A,FA]2 | c6 z2 | z2 E>E E2 e>e | A6 z2 | %16
 [A,DF][A,FA][Fd][Fd] cA B>B |[M:3/4] [CA]6 |] %18
V:2
 z4 z2 [A,,E,][A,,E,] | [A,,A,][A,,A,][A,,A,][A,,A,] [A,,E,][A,,E,][A,,A,][A,,A,] | %2
 [D,F,D][D,F,D][D,F,D][D,F,D] [D,B,D]2 [=D,B,][D,B,] | %3
 [E,B,E][E,B,E][E,B,E][E,A,E] [E,G,][E,B,E][E,G,E][E,G,] | A,E,F,G, A,2 [A,,E,A,][A,,E,] | %5
 [A,,A,][A,,A,][A,,A,][A,,A,] [A,,E,][A,,E,][A,,A,][A,,A,] | %6
 [D,F,D][D,F,D][D,F,D][D,F,D] [D,B,D]2 [=D,B,][D,B,] | %7
 [E,B,][E,B,][E,E][E,E][K:treble] [A,EA][A,EA] [B,A]>[B,A] |[M:3/4][K:bass] [E,B,]6 |[M:1/4] z2 | %10
[M:4/4] z2 [E,B,]>[E,B,] [E,B,]2 z2 | z2 A,,>A,, A,,2 C,C, | D,D,[D,D][D,D] z[K:treble] d z B | %13
 [A,,A,][A,,A,][C,A,][E,A,] A,2 z2 | z2 [E,B,]>[E,B,] [E,B,]2 z2 | z2 A,,>A,, A,,2 C,C, | %16
 D,D,[D,A,][D,A,] [E,A,E][E,A,C] [E,G,D]>[E,D] |[M:3/4] [A,,E,]6 |] %18
V:3
 x8 | x8 | x8 | x8 | .E2 z2 z4 | x8 | x8 | x8 |[M:3/4] x6 |[M:1/4] x2 |[M:4/4] G6 z2 | %11
 z2 [CE]>[CE] [CE]2 [A,EA][A,EG] | x8 | EEEE E2 e>e | G6 z2 | z2 [CE]>[CE] [CE]2 [A,EA][A,EG] | %16
 x8 |[M:3/4] x6 |] %18
V:4
 x8 | x8 | x8 | x8 | A,,6 z2 | x8 | x8 | x4[K:treble] x4 |[M:3/4][K:bass] x6 |[M:1/4] x2 | %10
[M:4/4] x8 | x8 | z4 [D,A,]2[K:treble] D,2 | x8 | x8 | x8 | x8 |[M:3/4] x6 |] %18

